trunk/public/assets/images/icons/red/ranking.svg

<svg width="16" height="16" xmlns="http://www.w3.org/2000/svg" viewBox="0 0 16 16" shape-rendering="geometricPrecision" fill="#cb1800"><path d="M11 10V5.97H4.03V10H0v6h15v-6h-4zm-1.663 4.47H6.35v-.975h.99V10.47H6.325v-.974H7.34V8.5h1.007v4.995h.99v.975zM0 145h1.02v1H0z"/></svg>

<?xml version="1.0"?><!DOCTYPE svg PUBLIC "-//W3C//DTD SVG 1.1//EN" "http://www.w3.org/Graphics/SVG/1.1/DTD/svg11.dtd"><svg width="16px" height="16px" xmlns="http://www.w3.org/2000/svg" viewBox="0 0 16 16" shape-rendering="geometricPrecision" fill="#cb1800"><g><path d="M11,10.001V5.97H4.031v4.031H0V16h4.031H11h4v-5.999H11z M9.337,14.47H6.351v-0.975h0.989v-3.024H6.325 V9.496h1.014V8.5h1.008v4.995h0.989V14.47z"/><rect x="0" y="145" width="1.02" height="1"/></g></svg>
